packages/components/icon/src/assets/icons/link-broken.svg

<svg width="24" height="24" viewBox="0 0 24 24" fill="none" xmlns="http://www.w3.org/2000/svg">
<path fill-rule="evenodd" clip-rule="evenodd" d="M2.66771 3.44247L20.4212 21.1959L19.0727 22.555L13.9441 17.4265L11.1728 20.1978C9.10228 22.2684 5.73634 22.2684 3.66581 20.1978C1.59528 18.1273 1.59528 14.7614 3.66581 12.6908L5.24791 11.1087C5.23729 11.9794 5.37533 12.8501 5.67263 13.6889L5.17358 14.188C3.92065 15.4303 3.92065 17.4477 5.17358 18.6901C6.4159 19.943 8.43334 19.943 9.67566 18.6901L12.4576 15.9294L10.7375 14.2198C10.7268 14.4747 10.6207 14.7401 10.4295 14.9419C10.0154 15.356 9.33588 15.356 8.92177 14.9419C7.80687 13.8163 7.28658 12.3298 7.38215 10.8751L1.30859 4.79097L2.66771 3.44247ZM20.1876 3.67607C22.2581 5.74659 22.2581 9.11253 20.1876 11.1831L18.6055 12.7652C18.6161 11.8945 18.4781 11.0238 18.1808 10.1956L18.6798 9.68591C19.9327 8.44359 19.9327 6.42615 18.6798 5.18384C17.4375 3.9309 15.42 3.9309 14.1777 5.18384L10.6419 8.71966L9.14475 7.21189L12.6806 3.67607C14.7511 1.60554 18.117 1.60554 20.1876 3.67607ZM13.4238 8.93202C13.8379 8.51792 14.5175 8.51792 14.9316 8.93202C16.3863 10.3867 16.8216 12.4679 16.2376 14.3048L14.3476 12.4254C14.2945 11.7033 13.9866 10.9919 13.4238 10.4398C12.9885 10.0257 12.9885 9.34613 13.4238 8.93202Z" fill="currentColor"/>
</svg>

<svg viewBox="0 0 24 24" fill="none" xmlns="http://www.w3.org/2000/svg"><path fill-rule="evenodd" clip-rule="evenodd" d="M2.668 3.442 20.42 21.196l-1.348 1.359-5.129-5.128-2.771 2.77a5.313 5.313 0 0 1-7.507 0 5.313 5.313 0 0 1 0-7.506l1.582-1.582c-.01.87.127 1.741.425 2.58l-.5.499a3.166 3.166 0 0 0 0 4.502 3.166 3.166 0 0 0 4.503 0l2.782-2.76-1.72-1.71c-.011.255-.117.52-.308.722a1.07 1.07 0 0 1-1.508 0 5.28 5.28 0 0 1-1.54-4.067L1.31 4.791l1.359-1.349Zm17.52.234a5.313 5.313 0 0 1 0 7.507l-1.582 1.582a7.335 7.335 0 0 0-.425-2.57l.499-.51a3.166 3.166 0 0 0 0-4.501 3.166 3.166 0 0 0-4.502 0L10.642 8.72 9.145 7.212l3.536-3.536a5.313 5.313 0 0 1 7.507 0Zm-6.764 5.256a1.07 1.07 0 0 1 1.508 0 5.307 5.307 0 0 1 1.306 5.373l-1.89-1.88a3.094 3.094 0 0 0-.924-1.985 1.034 1.034 0 0 1 0-1.508Z" fill="currentColor"/></svg>
